packages/icon/src/svg/placeholder.icon.svg

<svg aria-label="placeholder icon" viewBox="0 0 24 24" fill="none" xmlns="http://www.w3.org/2000/svg">
<path d="M17 3H15V5H17V3Z" />
<path d="M13 3V5H11V3H13Z" />
<path d="M9 3V5H7V3H9Z" />
<path d="M5 3V5H3V3.90002C3 3.40295 3.40295 3 3.90002 3H5Z" />
<path d="M3 9V7H5V9H3Z" />
<path d="M3 11V13H5V11H3Z" />
<path d="M3 17V15H5V17H3Z" />
<path d="M3 19V20.1C3 20.597 3.40295 21 3.90002 21H5V19H3Z" />
<path d="M7 19V21H9V19H7Z" />
<path d="M11 19V21H13V19H11Z" />
<path d="M15 19V21H17V19H15Z" />
<path d="M19 19V21H20.1C20.597 21 21 20.597 21 20.1V19H19Z" />
<path d="M21 15H19V17H21V15Z" />
<path d="M21 11V13H19V11H21Z" />
<path d="M21 9V7H19V9H21Z" />
<path d="M21 3.90002V5H19V3H20.1C20.597 3 21 3.40295 21 3.90002Z" />
<path d="M11 8.5C11 8.22388 11.2239 8 11.5 8H12.5C12.7761 8 13 8.22388 13 8.5V11H15.5C15.7761 11 16 11.2239 16 11.5V12.5C16 12.7761 15.7761 13 15.5 13H13V15.5C13 15.7761 12.7761 16 12.5 16H11.5C11.2239 16 11 15.7761 11 15.5V13H8.5C8.22388 13 8 12.7761 8 12.5V11.5C8 11.2239 8.22388 11 8.5 11H11V8.5Z" />
</svg>

<svg aria-label="placeholder icon" viewBox="0 0 24 24"><path d="M17 3h-2v2h2V3zm-4 0v2h-2V3h2zM9 3v2H7V3h2zM5 3v2H3V3.9a.9.9 0 01.9-.9H5zM3 9V7h2v2H3zm0 2v2h2v-2H3zm0 6v-2h2v2H3zm0 2v1.1a.9.9 0 00.9.9H5v-2H3zm4 0v2h2v-2H7zm4 0v2h2v-2h-2zm4 0v2h2v-2h-2zm4 0v2h1.1a.9.9 0 00.9-.9V19h-2zm2-4h-2v2h2v-2zm0-4v2h-2v-2h2zm0-2V7h-2v2h2zm0-5.1V5h-2V3h1.1a.9.9 0 01.9.9zM11 8.5a.5.5 0 01.5-.5h1a.5.5 0 01.5.5V11h2.5a.5.5 0 01.5.5v1a.5.5 0 01-.5.5H13v2.5a.5.5 0 01-.5.5h-1a.5.5 0 01-.5-.5V13H8.5a.5.5 0 01-.5-.5v-1a.5.5 0 01.5-.5H11V8.5z"/></svg>
